src/img/HomePage/Crystals/Down2.svg

<?xml version="1.0" encoding="UTF-8"?> <svg xmlns="http://www.w3.org/2000/svg" width="369" height="428" viewBox="0 0 369 428" fill="none"> <path d="M60.615 14.6674C52.9271 10.1336 51.4881 8.6699 52.3699 6.26944C52.957 4.66999 54.6423 3.2947 56.1164 3.21231C57.59 3.1284 62.7703 2.41087 67.6275 1.61489C77.6019 -0.0194968 86.6122 -0.088405 85.8679 1.47454C85.5953 2.04961 83.5041 2.38056 81.2216 2.2132C78.9401 2.04379 72.1673 2.58558 66.1706 3.41572C51.3967 5.46104 50.3858 8.11159 62.2558 13.6759C69.707 17.1685 71.7386 17.4141 76.3959 15.3833C79.3869 14.0788 81.695 12.6779 81.5222 12.2703C80.4884 9.81324 74.1108 7.4276 68.5194 7.40408C57.1202 7.35506 66.626 5.43278 80.235 5.0341C95.0023 4.60146 98.4352 3.90424 91.7843 2.68356C86.6136 1.7345 87.8384 0.589816 93.1456 1.41061C95.0575 1.70708 96.9471 2.87371 97.3461 4.00411C98.2356 6.52403 95.0432 8.687 80.8976 15.1491L69.9272 20.1599L60.615 14.6674Z" fill="#FA007A"></path> <path d="M25.2728 73.6794C19.7617 70.1734 17.9924 65.868 20.0426 60.9454C22.0704 56.0751 26.6689 54.6718 32.3567 57.1867C37.2541 59.3536 41.59 67.8021 39.2809 70.6774C38.6063 71.5188 38.9274 73.3668 39.9971 74.7853C41.0654 76.2043 41.5204 77.5127 41.0084 77.6934C38.468 78.5901 29.3271 76.2581 25.2728 73.6794Z" fill="#FA007A"></path> <path d="M64.7051 62.2092C61.6832 63.9797 49.5911 61.1114 48.6149 58.3937C47.6835 55.8034 53.0188 54.1484 56.1822 56.0463C57.5981 56.8961 60.3118 57.2794 62.2127 56.8999C66.387 56.0654 68.2853 60.1105 64.7051 62.2092Z" fill="#FA007A"></path> <path d="M6.67483 92.1216C5.82935 91.1267 5.61757 89.0015 6.20558 87.4C7.4766 83.9368 7.62773 83.8647 12.0883 84.5532C15.3154 85.0534 18.1497 89.1465 16.9752 91.6128C16.0422 93.5746 8.23729 93.9592 6.67483 92.1216Z" fill="#FA007A"></path> <path d="M319.272 38.441L335.562 31.6599C344.522 27.9299 352.274 24.578 352.791 24.2118C353.306 23.844 354.389 24.0771 355.197 24.7292C356.151 25.4998 350.12 28.1077 337.968 32.1773L319.272 38.441Z" fill="#FA007A"></path> <path d="M362.219 25.6587C364.344 24.9085 365.843 23.6125 365.549 22.7791C365.255 21.9457 365.694 21.0239 366.524 20.7307C371.403 19.0087 367.407 24.9552 355.11 37.7174C347.42 45.7012 333.882 60.5321 325.03 70.6776L308.937 89.122L288.558 90.8025C277.351 91.7268 267.395 92.2878 266.434 92.0477C265.474 91.8071 263.45 89.5021 261.935 86.925C259.193 82.2558 259.218 82.2046 268.339 73.341C282.007 60.0555 299.071 47.6796 309.908 43.1914L319.54 39.2002L310.16 43.9442C299.453 49.3595 283.424 61.4658 270.947 73.564C263.312 80.9656 262.567 82.304 263.93 86.1665C265.478 90.5532 267.931 91.1871 268.746 87.4109C269.657 83.1957 300.756 55.7348 306.75 53.8525C308.074 53.4362 304.404 56.9505 298.592 61.6602C280.151 76.61 275.68 80.7186 272.77 85.3943L269.931 89.9545L282.958 88.9567C295.528 87.9946 296.058 87.8263 298.042 84.1607C301.035 78.6312 307.505 72.2371 311.552 70.8083C313.486 70.1259 319.008 65.6325 323.823 60.823C328.639 56.0131 336.564 49.2946 341.435 45.8916C346.306 42.4885 352.213 37.5695 354.562 34.9598L358.831 30.2132L348.509 34.6544C338.629 38.9052 338.488 38.9192 345.221 34.9645C349.09 32.6923 354.279 30.5027 356.752 30.0968C359.475 29.6503 360.677 28.8987 359.8 28.1908C358.995 27.5397 360.066 26.4184 362.219 25.6587Z" fill="#FA007A"></path> <path d="M315.007 50.4181C310.632 51.9403 310.645 51.8897 315.361 49.0151C318.052 47.3751 321.949 45.4235 324.022 44.6798C327.365 43.4792 327.326 43.6378 323.668 46.0828C321.4 47.5989 317.503 49.5491 315.007 50.4181Z" fill="#FA007A"></path> <path fill-rule="evenodd" clip-rule="evenodd" d="M190.825 43.6544C183.999 52.6449 170.186 68.7286 160.128 79.3951C143.037 97.5217 141.13 100.22 130.91 120.744C124.896 132.818 115.802 149.744 110.702 158.357C94.0575 186.459 84.4899 198.162 37.4025 248.013C27.8877 258.086 27.0662 259.507 28.7259 263.006C29.7343 265.131 29.9573 267.621 29.2223 268.536C28.307 269.677 27.8474 269.073 27.7669 266.622C27.6075 261.772 26.225 262.614 23.6064 269.155C20.8933 275.929 21.3019 277.255 27.0261 280.258L31.5908 282.652L31.6633 293.853C31.822 318.376 26.2681 346.994 13.5796 387.028C9.78475 399 5.86946 411.501 4.87984 414.808C3.88871 418.117 2.52033 421.275 1.83736 421.828C1.15492 422.382 0.820326 423.47 1.09418 424.246C1.76063 426.134 12.8827 428.424 16.0294 427.321C17.4049 426.838 23.1322 419.244 28.757 410.446C63.7197 355.748 109.308 297.056 148.073 256.835C157.51 247.042 159.083 244.559 159.338 239.047C160.095 222.742 165.492 177.794 168.661 161.408C175.382 126.662 186.973 89.5845 200.533 59.4533C208.553 41.6297 208.787 40.6219 206.429 33.941C205.079 30.1164 203.809 27.0577 203.605 27.1449C203.402 27.2336 197.652 34.6617 190.825 43.6544ZM181.437 79.0017C182.264 77.1691 186.926 66.514 191.797 55.3251C197.393 42.478 201.281 35.4871 202.355 36.3538C203.288 37.108 204.023 38.8903 203.986 40.3124C203.937 42.1976 204.377 42.3422 205.605 40.8469C207.059 39.0761 207.126 39.2604 206.092 42.178C205.431 44.0388 203.816 45.5324 202.504 45.4947C201.148 45.4568 200.766 45.9529 201.619 46.6419C203.384 48.0671 192.111 74.7209 189.474 75.3586C188.49 75.597 188.152 76.8666 188.724 78.1796C189.297 79.4941 188.799 80.6972 187.619 80.8565C186.437 81.0164 186.059 81.6218 186.779 82.2027C187.499 82.7837 186.24 88.5567 183.983 95.0312C177.616 113.302 169.125 145.925 166.057 163.916C164.526 172.891 162.496 180.327 161.546 180.439C160.597 180.551 160.502 181.449 161.338 182.43C162.174 183.413 161.833 192.151 160.578 201.849C159.325 211.546 158.261 221.65 158.214 224.299C158.168 226.95 157.378 228.954 156.457 228.752C155.537 228.55 155.622 229.625 156.646 231.139C157.727 232.74 157.763 234.155 156.731 234.519C155.754 234.864 155.602 235.669 156.393 236.307C159.61 238.907 156.156 245.207 145.287 256.568C108.244 295.288 61.6643 355.146 26.1876 409.62L15.5186 426.003L10.1466 425.249C3.64078 424.339 3.6663 423.059 10.594 402.817C27.5568 353.248 36.8488 303.731 33.1923 282.386C31.0826 270.068 30.4991 260.172 31.7577 258.059C32.4536 256.888 41.0238 247.498 50.8029 237.193C68.9479 218.068 89.9028 194.11 96.0166 185.498C104.995 172.851 123.136 141.544 132.961 121.742C142.954 101.6 145.294 98.2302 160.604 81.8991C169.804 72.0877 181.219 58.9533 185.971 52.7122C198.556 36.1881 198.641 36.131 193.43 47.6426C189.349 56.6613 175.06 78.0899 172.531 78.9824C172.077 79.1429 165.885 85.1284 158.772 92.2831C147.228 103.897 144.85 107.4 136.626 124.908C131.56 135.697 122.874 151.469 117.325 159.956C111.775 168.443 106.757 176.689 106.173 178.278C103.868 184.559 109.475 178.814 121.335 162.748C125.684 156.856 145.185 138.19 157.349 128.278C159.525 126.504 161.931 124.067 162.696 122.861C165.714 118.11 165.568 122.074 162.232 135.457C157.232 155.506 152.805 181.836 150.475 205.384C148.348 226.874 148.322 228.038 150.046 225.892C150.64 225.153 151.833 225.262 152.698 226.134C153.563 227.006 153.352 226.147 152.23 224.225C150.987 222.099 150.727 217.859 151.564 213.384C152.32 209.342 152.873 204.432 152.793 202.472C152.466 194.527 161.129 146.943 162.941 146.739C164.013 146.618 164.213 145.972 163.384 145.305C160.617 143.07 162.473 140.139 165.919 141.302C168.785 142.27 168.806 142.183 166.11 140.462C163.446 138.763 163.549 136.854 166.99 123.963C170.917 109.253 178.661 85.1536 181.437 79.0017ZM77.0837 220.883C76.4904 222.498 74.7703 224.256 73.2599 224.789C66.1824 227.287 39.2211 252.155 39.4665 255.958C39.5367 257.067 39.839 263.202 40.1365 269.593C40.434 275.984 41.2378 281.452 41.9218 281.744C42.6072 282.035 43.1686 281.286 43.172 280.079C43.1739 278.872 44.0553 275.493 45.1316 272.571C46.2079 269.648 47.3416 265.497 47.6523 263.346C47.9631 261.195 52.4319 254.684 57.5837 248.877C68.4055 236.679 80.0024 221.525 80.5881 218.815C81.2218 215.88 78.2829 217.616 77.0837 220.883ZM146.845 233.254C145.773 235.512 136.401 246.855 126.018 258.461C108.746 277.768 89.9257 300.721 87.4274 305.524C85.918 308.427 91.7918 301.99 98.6343 293.244C116.209 270.773 150.763 233.1 152.507 234.509C153.245 235.104 154.333 234.989 154.924 234.254C155.966 232.954 150.97 227.85 149.506 228.723C149.114 228.957 147.915 230.995 146.845 233.254ZM150.804 237.255C150.915 237.569 152.527 238.343 154.384 238.974C157.444 240.012 157.478 239.94 154.752 238.2C151.887 236.372 150.364 236.008 150.804 237.255ZM40.492 302.455C40.0512 308.901 36.7425 325.416 33.1391 339.156C29.5351 352.895 26.3145 365.531 25.9813 367.234C24.6224 374.182 16.3853 402.532 15.483 403.363C14.9489 403.857 12.7925 407.564 10.6905 411.604C5.87131 420.861 8.63218 417.913 16.9461 404.924C20.4673 399.424 24.4562 393.402 25.8112 391.543C27.1642 389.684 30.7505 384.2 33.7772 379.359C36.8049 374.515 49.6699 356.534 62.3683 339.399C75.0652 322.264 85.2123 308.112 84.9169 307.949C84.004 307.447 71.1319 323.801 56.2949 344.314C48.0948 355.652 42.2245 362.528 42.3224 360.678C42.4156 358.926 42.3738 352.932 42.2293 347.36C42.0849 341.787 42.2279 331.385 42.5469 324.243C43.2106 309.411 42.8787 291.499 41.9317 291.044C41.5799 290.875 40.9314 296.01 40.492 302.455ZM8.96668 420.92C8.04751 422.098 8.99083 422.822 11.8305 423.115C15.6963 423.514 15.8453 423.349 13.5208 421.219C11.9508 419.782 11.2828 419.127 10.7091 419.201C10.2238 419.263 9.80601 419.847 8.96668 420.92Z" fill="#FA007A"></path> </svg>

<svg xmlns="http://www.w3.org/2000/svg" width="369" height="428" fill="none"><path d="M60.615 14.667c-7.688-4.533-9.127-5.997-8.245-8.398.587-1.599 2.272-2.974 3.746-3.057 1.474-.084 6.654-.801 11.511-1.597 9.975-1.634 18.985-1.703 18.24-.14-.272.575-2.363.906-4.645.738-2.282-.17-9.055.373-15.051 1.203-14.774 2.045-15.785 4.696-3.915 10.26 7.451 3.493 9.483 3.738 14.14 1.707 2.99-1.304 5.299-2.705 5.126-3.113-1.034-2.457-7.411-4.842-13.003-4.866-11.399-.049-1.893-1.971 11.716-2.37 14.767-.433 18.2-1.13 11.55-2.35-5.171-.95-3.947-2.094 1.36-1.273 1.913.296 3.802 1.463 4.201 2.593.89 2.52-2.303 4.683-16.448 11.145l-10.97 5.01-9.313-5.492ZM25.273 73.68c-5.511-3.507-7.28-7.812-5.23-12.735 2.027-4.87 6.626-6.273 12.314-3.758 4.897 2.167 9.233 10.615 6.924 13.49-.675.842-.354 2.69.716 4.108 1.068 1.42 1.523 2.728 1.011 2.908-2.54.897-11.68-1.435-15.735-4.014ZM64.705 62.21c-3.022 1.77-15.114-1.099-16.09-3.816-.931-2.59 4.404-4.246 7.567-2.348 1.416.85 4.13 1.233 6.03.854 4.175-.835 6.073 3.21 2.493 5.31ZM6.675 92.122c-.846-.995-1.057-3.12-.47-4.722 1.272-3.463 1.423-3.535 5.883-2.847 3.227.5 6.062 4.594 4.887 7.06-.933 1.962-8.738 2.346-10.3.509ZM319.272 38.441l16.29-6.781c8.96-3.73 16.712-7.082 17.229-7.448.515-.368 1.598-.135 2.406.517.954.77-5.077 3.379-17.229 7.448l-18.696 6.264Z" fill="#FA007A"/><path d="M362.219 25.659c2.125-.75 3.624-2.046 3.33-2.88a1.61 1.61 0 0 1 .975-2.048c4.879-1.722.883 4.224-11.414 16.986-7.69 7.984-21.228 22.815-30.08 32.96l-16.093 18.445-20.379 1.68c-11.207.925-21.163 1.486-22.124 1.246-.96-.24-2.984-2.546-4.499-5.123-2.742-4.67-2.717-4.72 6.404-13.584 13.668-13.285 30.732-25.661 41.569-30.15l9.632-3.99-9.38 4.743c-10.707 5.415-26.736 17.522-39.213 29.62-7.635 7.402-8.38 8.74-7.017 12.603 1.548 4.386 4.001 5.02 4.816 1.244.911-4.215 32.01-31.676 38.004-33.559 1.324-.416-2.346 3.099-8.158 7.808-18.441 14.95-22.912 19.059-25.822 23.734l-2.839 4.56 13.027-.997c12.57-.962 13.1-1.13 15.084-4.796 2.993-5.53 9.463-11.924 13.51-13.353 1.934-.682 7.456-5.176 12.271-9.985 4.816-4.81 12.741-11.528 17.612-14.931 4.871-3.404 10.778-8.323 13.127-10.932l4.269-4.747-10.322 4.441c-9.88 4.251-10.021 4.265-3.288.31 3.869-2.272 9.058-4.461 11.531-4.867 2.723-.447 3.925-1.198 3.048-1.906-.805-.651.266-1.773 2.419-2.532Z" fill="#FA007A"/><path d="M315.007 50.418c-4.375 1.522-4.362 1.472.354-1.403 2.691-1.64 6.588-3.592 8.661-4.335 3.343-1.2 3.304-1.042-.354 1.403-2.268 1.516-6.165 3.466-8.661 4.335Z" fill="#FA007A"/><path fill-rule="evenodd" clip-rule="evenodd" d="M190.825 43.654c-6.826 8.99-20.639 25.075-30.697 35.741-17.091 18.127-18.998 20.825-29.218 41.349-6.014 12.074-15.108 29-20.208 37.613-16.644 28.102-26.212 39.805-73.3 89.656-9.514 10.073-10.336 11.494-8.676 14.993 1.008 2.125 1.231 4.615.496 5.53-.915 1.141-1.375.537-1.455-1.914-.16-4.85-1.542-4.008-4.16 2.533-2.714 6.774-2.305 8.1 3.42 11.103l4.564 2.394.072 11.201c.159 24.523-5.395 53.141-18.083 93.175-3.795 11.972-7.71 24.473-8.7 27.78-.991 3.309-2.36 6.467-3.043 7.02-.682.554-1.017 1.642-.743 2.418.667 1.888 11.789 4.178 14.935 3.075 1.376-.483 7.103-8.077 12.728-16.875 34.963-54.698 80.551-113.39 119.316-153.611 9.437-9.793 11.01-12.276 11.265-17.788.757-16.305 6.154-61.253 9.323-77.639 6.721-34.746 18.312-71.823 31.872-101.955 8.02-17.823 8.254-18.831 5.896-25.512-1.35-3.825-2.62-6.883-2.824-6.796-.203.089-5.953 7.517-12.78 16.51Zm-9.388 35.348c.827-1.833 5.489-12.488 10.36-23.677 5.596-12.847 9.484-19.838 10.558-18.971.933.754 1.668 2.536 1.631 3.958-.049 1.886.391 2.03 1.619.535 1.454-1.77 1.521-1.587.487 1.331-.661 1.86-2.276 3.354-3.588 3.317-1.356-.038-1.738.458-.885 1.147 1.765 1.425-9.508 28.079-12.145 28.717-.984.238-1.322 1.508-.75 2.82.573 1.315.075 2.518-1.105 2.677-1.182.16-1.56.766-.84 1.347.72.58-.539 6.354-2.796 12.828-6.367 18.271-14.858 50.894-17.926 68.885-1.531 8.975-3.561 16.411-4.511 16.523-.949.112-1.044 1.01-.208 1.991.836.983.495 9.721-.76 19.419-1.253 9.697-2.317 19.801-2.364 22.45-.046 2.651-.836 4.655-1.757 4.453-.92-.202-.835.873.189 2.387 1.081 1.601 1.117 3.016.085 3.38-.977.345-1.129 1.15-.338 1.788 3.217 2.6-.237 8.9-11.106 20.261-37.043 38.72-83.623 98.578-119.1 153.052L15.52 426.003l-5.372-.754c-6.506-.91-6.48-2.19.447-22.432 16.963-49.569 26.255-99.086 22.598-120.431-2.11-12.318-2.693-22.214-1.434-24.327.696-1.171 9.266-10.561 19.045-20.866 18.145-19.125 39.1-43.083 45.214-51.695 8.978-12.647 27.119-43.954 36.944-63.756 9.993-20.142 12.333-23.512 27.643-39.843 9.2-9.811 20.615-22.946 25.367-29.187 12.585-16.524 12.67-16.581 7.459-5.07-4.081 9.02-18.37 30.448-20.899 31.34-.454.16-6.646 6.146-13.759 13.301-11.544 11.614-13.922 15.117-22.146 32.625-5.066 10.789-13.752 26.561-19.301 35.048-5.55 8.487-10.568 16.733-11.152 18.322-2.305 6.281 3.302.536 15.162-15.53 4.349-5.892 23.85-24.558 36.014-34.47 2.176-1.774 4.582-4.211 5.347-5.417 3.018-4.751 2.872-.787-.464 12.596-5 20.049-9.427 46.379-11.757 69.927-2.127 21.49-2.153 22.654-.429 20.508.594-.739 1.787-.63 2.652.242.865.872.654.013-.468-1.909-1.243-2.126-1.503-6.366-.666-10.841.756-4.042 1.309-8.952 1.229-10.912-.327-7.945 8.336-55.529 10.148-55.733 1.072-.121 1.272-.767.443-1.434-2.767-2.235-.911-5.166 2.535-4.003 2.866.968 2.887.881.191-.84-2.664-1.699-2.561-3.608.88-16.499 3.927-14.71 11.671-38.81 14.447-44.961ZM77.084 220.883c-.594 1.615-2.314 3.373-3.824 3.906-7.078 2.498-34.039 27.366-33.794 31.169.07 1.109.373 7.244.67 13.635.298 6.391 1.102 11.859 1.786 12.151.685.291 1.247-.458 1.25-1.665.002-1.207.883-4.586 1.96-7.508 1.076-2.923 2.21-7.074 2.52-9.225.311-2.151 4.78-8.662 9.932-14.469 10.822-12.198 22.418-27.352 23.004-30.062.634-2.935-2.305-1.199-3.504 2.068Zm69.761 12.371c-1.072 2.258-10.444 13.601-20.827 25.207-17.272 19.307-36.092 42.26-38.59 47.063-1.51 2.903 4.364-3.534 11.206-12.28 17.575-22.471 52.129-60.144 53.873-58.735.738.595 1.826.48 2.417-.255 1.042-1.3-3.954-6.404-5.418-5.531-.392.234-1.591 2.272-2.661 4.531Zm3.959 4.001c.111.314 1.723 1.088 3.58 1.719 3.06 1.038 3.094.966.368-.774-2.865-1.828-4.388-2.192-3.948-.945Zm-110.312 65.2c-.44 6.446-3.75 22.961-7.353 36.701-3.604 13.739-6.825 26.375-7.158 28.078-1.359 6.948-9.596 35.298-10.498 36.129-.534.494-2.69 4.201-4.793 8.241-4.819 9.257-2.058 6.309 6.256-6.68 3.521-5.5 7.51-11.522 8.865-13.381 1.353-1.859 4.94-7.343 7.966-12.184 3.028-4.844 15.893-22.825 28.591-39.96 12.697-17.135 22.844-31.287 22.549-31.45-.913-.502-13.785 15.852-28.622 36.365-8.2 11.338-14.07 18.214-13.973 16.364.094-1.752.052-7.746-.093-13.318-.144-5.573-.001-15.975.318-23.117.664-14.832.332-32.744-.615-33.199-.352-.169-1 4.966-1.44 11.411ZM8.967 420.92c-.92 1.178.024 1.902 2.864 2.195 3.865.399 4.014.234 1.69-1.896-1.57-1.437-2.238-2.092-2.812-2.018-.485.062-.903.646-1.742 1.719Z" fill="#FA007A"/></svg>
